X: 35
T:Pam's Fancy
% Nottingham Music Database
S:Bryon Bonnett
M:3/4
L:1/4
K:G
"G"BD/2E/2G/2B/2|"C7"_B3|"G"BD/2E/2G/2B/2|"Gd"_B3|"G"Bed|"G"B2G|"C"E2^E|\
"D7"FED|
"G"BD/2E/2G/2B/2|"C7"_B3|"G"BD/2E/2G/2B/2|"Gd"_B3|"G"Bed|"G"BG/2F/2=F|\
"C"E"D7"FD|"G"G3||
"C"eG/2A/2c/2e/2|"G"d3|"D7"cD/2E/2F/2A/2|"G"B3|"A"gfe|"A7"A^ce|\
"D"d^c/2d/2=c/2d/2|"D7"A/2d/2F/2d/2D|
"G"BD/2E/2G/2B/2|"C7"_B3|"G"BD/2E/2G/2B/2|"Gd"_B3|"G"Bed|"G"BG/2F/2=F|\
"C"E"D7"FD|"G"G3||
B2B|CEG|B2B|^CEG|BcB|GAB|C2A|dcA|
"G"BD/2E/2G/2B/2|"C7"_B3|"G"BD/2E/2G/2B/2|"Gd"_B3|"G"Bed|G2B|c2c|BdB||
c2A|B2G|A2F|GBG|ed^c|A2G|F2A|c3|"G"BD/2E/2G/2B/2|
"C7"_B3|"G"BD/2E/2G/2B/2|"Gd"_B3|"G"Bed|"G"BG/2F/2=F|cAF|G3||


